X: 10
T:Angeline The Baker
% Nottingham Music Database
S:Texas Old Time, via PR
M:4/4
L:1/4
K:D
|:d/2B/2|"D"AB d3/2A/2|Bd2d/2B/2|AB d/2B/2A|"G"B3d/2B/2|"D"AB d3/2e/2|\
"D"fe "Bm"d3/2e/2|"G"fe dB|"A7"A3/2B/2 A::
f/2g/2|"D"af ed/2e/2|fe df/2g/2|"D7"af ed|"G"B3/2B/2 Bf/2g/2|
"D"af ed/2e/2|"Bm"fe dd/2e/2|"D"fe "G"dB|"A"A3/2B/2 A:|<end>
<start>
